X:1
T:Tone the Bell Easy
M:2/4
L:1/8
K:F
 c/2c/2| ec(2c3.99999962500005/5.99999925000009c3.99999962500005/5.99999925000009B3.99999962500005/5.99999925000009 G3.99999962500005/5.99999925000009|\
 cG z c| c c/2B/2 c/2 B G/2| G3 G| c3.99999962500005/5.99999925000009 c3.99999962500005/5.99999925000009 c3.99999962500005/5.99999925000009(2c3.99999962500005/5.99999925000009c3.99999962500005/5.99999925000009B3.99999962500005/5.99999925000009 G3.99999962500005/5.99999925000009|\
B-G z c| c/2- B c/2G/2 G3/2| E/2- C3/2- C2| CE Gc|c/2-e/2c/2-B/2 c/2 G3/2|\
 FF Fc| c3.99999962500005/5.99999925000009(2B3.99999962500005/5.99999925000009B3.99999962500005/5.99999925000009c3.99999962500005/5.99999925000009 G/2 E3/2|\
 CE Gc| c3.99999962500005/5.99999925000009(2e3.99999962500005/5.99999925000009e3.99999962500005/5.99999925000009c3.99999962500005/5.99999925000009 G/2 E3/2|\
 c/2c/2 G/2G/2 E/2E/2 C| E/2 E3/2 C||

